assets/desk1.svg

<?xml version="1.0" encoding="utf-8"?>
<!-- Generator: Adobe Illustrator 25.0.1, SVG Export Plug-In . SVG Version: 6.00 Build 0)  -->
<svg version="1.1" id="Layer_1" xmlns="http://www.w3.org/2000/svg" xmlns:xlink="http://www.w3.org/1999/xlink" x="0px" y="0px"
	 viewBox="0 0 763.2 633.6" style="enable-background:new 0 0 763.2 633.6;" xml:space="preserve">
<style type="text/css">
	.st0{fill:#445097;}
	.st1{fill:#FFFFFF;}
	.st2{fill:#F3EBDE;}
	.st3{fill:#1A305F;}
	.st4{fill:#F26368;}
	.st5{fill:#FAA264;}
	.st6{fill:#293C80;}
	.st7{fill:#F9C2BA;}
	.st8{fill:#445093;}
	.st9{fill:#F8A26A;}
	.st10{fill:none;stroke:#1A305F;stroke-width:2.344;stroke-miterlimit:10;}
	.st11{opacity:5.000000e-02;fill:#FFFFFF;}
	.st12{fill:none;stroke:#FFFFFF;stroke-width:1.5786;stroke-miterlimit:10;}
	.st13{fill:#F9C3BC;}
	.st14{fill:#455296;}
	.st15{fill:#F7A36F;}
	.st16{fill:#F1646B;}
	.st17{fill:#F4ECE0;}
	.st18{fill:#F9A36A;}
	.st19{fill:#1B315E;}
	.st20{fill:#EF656E;}
	.st21{fill:#F7A470;}
	.st22{fill:#F5EDE1;}
	.st23{fill:#1B325C;}
	.st24{fill:none;stroke:#1B325C;stroke-width:0.8703;stroke-linecap:round;stroke-linejoin:round;stroke-miterlimit:10;}
	.st25{fill:#455292;}
	.st26{fill:#102E4D;}
	.st27{opacity:0.42;fill:#081827;enable-background:new    ;}
	
		.st28{opacity:0.4;fill:none;stroke:#F7A36F;stroke-width:4.1141;stroke-linecap:round;stroke-linejoin:round;stroke-miterlimit:10;}
	.st29{opacity:0.4;fill:#F7A36F;}
	
		.st30{opacity:0.4;fill:none;stroke:#F7A36F;stroke-width:4.0531;stroke-linecap:round;stroke-linejoin:round;stroke-miterlimit:10;}
</style>
<g>
	<polygon class="st1" points="763.6,455.8 531,211 440,211 91.1,514.5 763.6,518 	"/>
	<circle class="st2" cx="485.5" cy="202.4" r="19.6"/>
	<g>
		<g>
			<rect x="734.9" y="314" class="st3" width="28.8" height="174.4"/>
			
				<rect x="489.8" y="314" transform="matrix(-1 -4.507429e-11 4.507429e-11 -1 1017.7574 802.4374)" class="st0" width="38.1" height="174.4"/>
			
				<rect x="699.4" y="361.8" transform="matrix(-1 -4.492374e-11 4.492374e-11 -1 1435.0082 850.2068)" class="st4" width="36.2" height="126.7"/>
			
				<rect x="538.4" y="359.6" transform="matrix(-0.984 0.1784 -0.1784 -0.984 1179.399 739.7121)" class="st4" width="36.2" height="126.7"/>
			
				<rect x="653.6" y="335.1" transform="matrix(-1 -4.490731e-11 4.490731e-11 -1 1353.0382 823.5729)" class="st5" width="45.8" height="153.3"/>
			
				<rect x="653.6" y="354.1" transform="matrix(-1 -4.502633e-11 4.502633e-11 -1 1353.0382 755.2692)" class="st0" width="45.8" height="47.2"/>
			<path class="st6" d="M763.6,333.5c-2.4-2.6-5.9-4.3-9.7-4.3c-7.3,0-13.2,5.9-13.2,13.2s5.9,13.2,13.2,13.2c3.8,0,7.3-1.6,9.7-4.3
				V333.5z"/>
			<rect x="612.5" y="375.8" class="st6" width="41.2" height="112.2"/>
			<circle class="st7" cx="509.1" cy="337.2" r="12.9"/>
			<rect x="612.5" y="385" class="st3" width="41.2" height="94.7"/>
		</g>
		<g>
			<path class="st5" d="M494,458H251.7c-4.9,0-8.8-3.9-8.8-8.8V288c0-4.9,3.9-8.8,8.8-8.8H494c4.9,0,8.8,3.9,8.8,8.8v161.3
				C502.8,454.1,498.9,458,494,458z"/>
			<path class="st3" d="M494,279.2H251.7c-4.9,0-8.8,3.9-8.8,8.8V430h259.9V288C502.8,283.1,498.9,279.2,494,279.2z"/>
			<rect x="315.6" y="483" class="st5" width="122.6" height="5.9"/>
			<rect x="340.2" y="458" class="st5" width="73" height="25"/>
			<rect x="258.6" y="294.3" class="st1" width="227.7" height="123.3"/>
			<circle class="st8" cx="377.5" cy="443.5" r="5"/>
			<polygon class="st4" points="340.2,458 340.2,467.7 413.2,458 			"/>
			<polygon class="st4" points="395.9,483 438.3,483 438.3,486.5 			"/>
		</g>
		<g>
			<polyline class="st9" points="481.7,350.4 431.5,350.4 431.5,285.5 496.5,285.5 496.5,335.7 			"/>
			<polyline class="st4" points="481.7,350.4 481.7,335.7 496.5,335.7 			"/>
		</g>
		<g>
			<rect x="194" y="378.5" class="st7" width="9.5" height="3.7"/>
			<rect x="161.8" y="478.4" class="st0" width="59.6" height="10.5"/>
			<rect x="194" y="382.2" class="st0" width="8.3" height="19.8"/>
			<path class="st0" d="M198.2,370.6L198.2,370.6c1.4,0,2.6,1.2,2.6,2.6v5.2h-5.2v-5.2C195.6,371.8,196.7,370.6,198.2,370.6z"/>
			<path class="st0" d="M214.3,344.7L214.3,344.7c1.7,0,3.2,1.4,3.2,3.2v4.4c0,0.2-0.1,0.3-0.3,0.3h-5.7c-0.2,0-0.3-0.1-0.3-0.3
				v-4.4C211.2,346.1,212.6,344.7,214.3,344.7z"/>
			<polygon class="st3" points="161.8,478.4 161.8,483.6 196,478.4 			"/>
			<path class="st0" d="M230.4,420.3c24.9,0,24.9,37.6,0,37.6v10.9c39.7,0,39.7-59.5,0-59.5V420.3z"/>
			<path class="st3" d="M240.9,454.9c-2.8,1.8-6.3,2.9-10.6,2.9v10L240.9,454.9z"/>
			<path class="st3" d="M241.9,423.9c0.4-4.9,3.5-7,7-7.8l-0.1-1.1c-4.7-3.5-10.8-5.7-18.4-5.7v11.1
				C235.1,420.3,239,421.7,241.9,423.9z"/>
			<rect x="162.6" y="339.4" class="st7" width="15.6" height="60.2"/>
			<rect x="187.2" y="346.5" class="st4" width="9.5" height="5.5"/>
			<rect x="187.2" y="351.9" class="st0" width="9.5" height="3.7"/>
			<rect x="187.2" y="355.6" class="st9" width="9.5" height="43.9"/>
			<rect x="203.5" y="360.6" class="st4" width="9.5" height="5.5"/>
			<rect x="203.5" y="366.1" class="st0" width="9.5" height="3.7"/>
			<rect x="203.5" y="369.8" class="st9" width="9.5" height="43.9"/>
			<rect x="209.6" y="354.1" class="st0" width="9.5" height="49"/>
			<rect x="176.2" y="365.5" class="st7" width="9.5" height="5.5"/>
			<rect x="176.2" y="371" class="st0" width="9.5" height="3.7"/>
			<rect x="176.2" y="374.7" class="st9" width="9.5" height="43.9"/>
			<rect x="208.3" y="352.2" class="st7" width="12.8" height="3.9"/>
			<rect x="217.5" y="353.4" class="st7" width="3.6" height="27.3"/>
			<polygon class="st4" points="177.9,339.4 170.3,399.6 177.9,399.6 			"/>
			<circle class="st1" cx="170.4" cy="345.8" r="2.6"/>
			<rect x="162.6" y="352.9" class="st1" width="5.7" height="1.2"/>
			<rect x="162.6" y="362.9" class="st1" width="5.7" height="1.2"/>
			<rect x="162.6" y="372.8" class="st1" width="5.7" height="1.2"/>
			<rect x="162.6" y="382.8" class="st1" width="5.7" height="1.2"/>
			<rect x="162.6" y="392.8" class="st1" width="5.7" height="1.2"/>
			<rect x="152.4" y="399.6" class="st0" width="78.8" height="78.8"/>
			<polygon class="st3" points="231.2,399.6 231.2,407.1 152.6,399.6 			"/>
			<polyline class="st3" points="185.8,371 185.8,374.7 183.5,374.7 184.5,371 			"/>
			<polyline class="st4" points="184.5,371 185.8,365.8 185.8,371 			"/>
		</g>
		<g>
			<path class="st4" d="M410.9,417.7h-84.3v-79.6c0-4.9,3.9-8.8,8.8-8.8h66.7c4.9,0,8.8,3.9,8.8,8.8V417.7z"/>
			<path class="st10" d="M326.6,382.1H318c-4.7,0-8.6-3.8-8.6-8.6v-18.8"/>
			<path class="st3" d="M309.4,363.5L309.4,363.5c-1.4,0-2.5-1.1-2.5-2.5v-4.1c0-1.4,1.1-2.5,2.5-2.5l0,0c1.4,0,2.5,1.1,2.5,2.5v4.1
				C311.9,362.3,310.8,363.5,309.4,363.5z"/>
			<path class="st3" d="M349.5,380.4L349.5,380.4c-2.8,0-5.1-2.3-5.1-5.1v-9c0-2.8,2.3-5.1,5.1-5.1l0,0c2.8,0,5.1,2.3,5.1,5.1v9
				C354.6,378.1,352.3,380.4,349.5,380.4z"/>
			<path class="st3" d="M384.8,380.4L384.8,380.4c-2.8,0-5.1-2.3-5.1-5.1v-9c0-2.8,2.3-5.1,5.1-5.1l0,0c2.8,0,5.1,2.3,5.1,5.1v9
				C389.9,378.1,387.6,380.4,384.8,380.4z"/>
			<path class="st3" d="M367.4,391.9L367.4,391.9c-3.8,0-6.8-3.1-6.8-6.8v-1.5h13.6v1.5C374.2,388.8,371.2,391.9,367.4,391.9z"/>
			<line class="st10" x1="412.6" y1="382.1" x2="412.6" y2="417.7"/>
		</g>
		
			<rect x="131.1" y="481.8" transform="matrix(-1.836970e-16 1 -1 -1.836970e-16 620.3903 348.776)" class="st7" width="9.5" height="5.5"/>
		
			<rect x="126.5" y="482.7" transform="matrix(-1.836970e-16 1 -1 -1.836970e-16 615.797 353.3692)" class="st0" width="9.5" height="3.7"/>
		<polygon class="st9" points="85.4,489.3 75.4,484.6 85.4,479.8 129.4,479.8 129.4,489.3 		"/>
		<polyline class="st3" points="133.1,489.3 129.4,489.3 129.4,487.1 133.1,488 		"/>
		<polyline class="st4" points="133.1,488 138.3,489.3 133.1,489.3 		"/>
	</g>
	<g>
		<path class="st3" d="M531,211h-91l4-26.6c4.6-19.6,22.2-33.4,42.4-33.1h0c20.1,0.2,37.4,14.4,41.6,34.1L531,211z"/>
		<path class="st3" d="M504.5,176l-38-0.4l0.3-22.5c0.1-10.5,8.7-18.9,19.2-18.8h0c10.5,0.1,18.9,8.7,18.8,19.2L504.5,176z"/>
		<rect x="482.7" y="2" class="st3" width="5.4" height="159.9"/>
	</g>
</g>
<polygon class="st7" points="763.6,487.2 84.6,489.1 0.6,489.3 0.7,538.1 763.6,536 "/>
<polygon class="st4" points="763.6,535.2 32.9,537.2 33.2,633.9 763.6,631.8 "/>
</svg>

<?xml version="1.0" encoding="UTF-8" standalone="no"?>
<!DOCTYPE svg PUBLIC "-//W3C//DTD SVG 1.1//EN" "http://www.w3.org/Graphics/SVG/1.1/DTD/svg11.dtd">
<svg width="100%" height="100%" viewBox="0 0 763 894" version="1.1" xmlns="http://www.w3.org/2000/svg" xmlns:xlink="http://www.w3.org/1999/xlink" xml:space="preserve" xmlns:serif="http://www.serif.com/" style="fill-rule:evenodd;clip-rule:evenodd;stroke-miterlimit:10;">
    <g transform="matrix(1,0,0,1,0,261)">
        <path d="M763.6,455.8L531,211L440,211L91.1,514.5L763.6,518L763.6,455.8Z" style="fill:white;fill-rule:nonzero;"/>
        <circle cx="485.5" cy="202.4" r="19.6" style="fill:rgb(243,235,222);"/>
        <g>
            <g>
                <rect x="734.9" y="314" width="28.8" height="174.4" style="fill:rgb(26,48,95);"/>
                <g transform="matrix(-1,-4.50743e-11,4.50743e-11,-1,1017.76,802.437)">
                    <rect x="489.8" y="314" width="38.1" height="174.4" style="fill:rgb(68,80,151);"/>
                </g>
                <g transform="matrix(-1,-4.49237e-11,4.49237e-11,-1,1435.01,850.207)">
                    <rect x="699.4" y="361.8" width="36.2" height="126.7" style="fill:rgb(242,99,104);"/>
                </g>
                <g transform="matrix(-0.984,0.1784,-0.1784,-0.984,1179.4,739.712)">
                    <rect x="538.4" y="359.6" width="36.2" height="126.7" style="fill:rgb(242,99,104);"/>
                </g>
                <g transform="matrix(-1,-4.49073e-11,4.49073e-11,-1,1353.04,823.573)">
                    <rect x="653.6" y="335.1" width="45.8" height="153.3" style="fill:rgb(250,162,100);"/>
                </g>
                <g transform="matrix(-1,-4.50263e-11,4.50263e-11,-1,1353.04,755.269)">
                    <rect x="653.6" y="354.1" width="45.8" height="47.2" style="fill:rgb(68,80,151);"/>
                </g>
                <path d="M763.6,333.5C761.2,330.9 757.7,329.2 753.9,329.2C746.6,329.2 740.7,335.1 740.7,342.4C740.7,349.7 746.6,355.6 753.9,355.6C757.7,355.6 761.2,354 763.6,351.3L763.6,333.5Z" style="fill:rgb(41,60,128);fill-rule:nonzero;"/>
                <rect x="612.5" y="375.8" width="41.2" height="112.2" style="fill:rgb(41,60,128);"/>
                <circle cx="509.1" cy="337.2" r="12.9" style="fill:rgb(249,194,186);"/>
                <rect x="612.5" y="385" width="41.2" height="94.7" style="fill:rgb(26,48,95);"/>
            </g>
            <g>
                <path d="M494,458L251.7,458C246.8,458 242.9,454.1 242.9,449.2L242.9,288C242.9,283.1 246.8,279.2 251.7,279.2L494,279.2C498.9,279.2 502.8,283.1 502.8,288L502.8,449.3C502.8,454.1 498.9,458 494,458Z" style="fill:rgb(250,162,100);fill-rule:nonzero;"/>
                <path d="M494,279.2L251.7,279.2C246.8,279.2 242.9,283.1 242.9,288L242.9,430L502.8,430L502.8,288C502.8,283.1 498.9,279.2 494,279.2Z" style="fill:rgb(26,48,95);fill-rule:nonzero;"/>
                <rect x="315.6" y="483" width="122.6" height="5.9" style="fill:rgb(250,162,100);"/>
                <rect x="340.2" y="458" width="73" height="25" style="fill:rgb(250,162,100);"/>
                <rect x="258.6" y="294.3" width="227.7" height="123.3" style="fill:white;"/>
                <circle cx="377.5" cy="443.5" r="5" style="fill:rgb(68,80,147);"/>
                <path d="M340.2,458L340.2,467.7L413.2,458L340.2,458Z" style="fill:rgb(242,99,104);fill-rule:nonzero;"/>
                <path d="M395.9,483L438.3,483L438.3,486.5L395.9,483Z" style="fill:rgb(242,99,104);fill-rule:nonzero;"/>
            </g>
            <g>
                <path d="M481.7,350.4L431.5,350.4L431.5,285.5L496.5,285.5L496.5,335.7" style="fill:rgb(248,162,106);fill-rule:nonzero;"/>
                <path d="M481.7,350.4L481.7,335.7L496.5,335.7" style="fill:rgb(242,99,104);fill-rule:nonzero;"/>
            </g>
            <g>
                <rect x="194" y="378.5" width="9.5" height="3.7" style="fill:rgb(249,194,186);"/>
                <rect x="161.8" y="478.4" width="59.6" height="10.5" style="fill:rgb(68,80,151);"/>
                <rect x="194" y="382.2" width="8.3" height="19.8" style="fill:rgb(68,80,151);"/>
                <path d="M198.2,370.6C199.6,370.6 200.8,371.8 200.8,373.2L200.8,378.4L195.6,378.4L195.6,373.2C195.6,371.8 196.7,370.6 198.2,370.6Z" style="fill:rgb(68,80,151);fill-rule:nonzero;"/>
                <path d="M214.3,344.7C216,344.7 217.5,346.1 217.5,347.9L217.5,352.3C217.5,352.5 217.4,352.6 217.2,352.6L211.5,352.6C211.3,352.6 211.2,352.5 211.2,352.3L211.2,347.9C211.2,346.1 212.6,344.7 214.3,344.7Z" style="fill:rgb(68,80,151);fill-rule:nonzero;"/>
                <path d="M161.8,478.4L161.8,483.6L196,478.4L161.8,478.4Z" style="fill:rgb(26,48,95);fill-rule:nonzero;"/>
                <path d="M230.4,420.3C255.3,420.3 255.3,457.9 230.4,457.9L230.4,468.8C270.1,468.8 270.1,409.3 230.4,409.3L230.4,420.3Z" style="fill:rgb(68,80,151);fill-rule:nonzero;"/>
                <path d="M240.9,454.9C238.1,456.7 234.6,457.8 230.3,457.8L230.3,467.8L240.9,454.9Z" style="fill:rgb(26,48,95);fill-rule:nonzero;"/>
                <path d="M241.9,423.9C242.3,419 245.4,416.9 248.9,416.1L248.8,415C244.1,411.5 238,409.3 230.4,409.3L230.4,420.4C235.1,420.3 239,421.7 241.9,423.9Z" style="fill:rgb(26,48,95);fill-rule:nonzero;"/>
                <rect x="162.6" y="339.4" width="15.6" height="60.2" style="fill:rgb(249,194,186);"/>
                <rect x="187.2" y="346.5" width="9.5" height="5.5" style="fill:rgb(242,99,104);"/>
                <rect x="187.2" y="351.9" width="9.5" height="3.7" style="fill:rgb(68,80,151);"/>
                <rect x="187.2" y="355.6" width="9.5" height="43.9" style="fill:rgb(248,162,106);"/>
                <rect x="203.5" y="360.6" width="9.5" height="5.5" style="fill:rgb(242,99,104);"/>
                <rect x="203.5" y="366.1" width="9.5" height="3.7" style="fill:rgb(68,80,151);"/>
                <rect x="203.5" y="369.8" width="9.5" height="43.9" style="fill:rgb(248,162,106);"/>
                <rect x="209.6" y="354.1" width="9.5" height="49" style="fill:rgb(68,80,151);"/>
                <rect x="176.2" y="365.5" width="9.5" height="5.5" style="fill:rgb(249,194,186);"/>
                <rect x="176.2" y="371" width="9.5" height="3.7" style="fill:rgb(68,80,151);"/>
                <rect x="176.2" y="374.7" width="9.5" height="43.9" style="fill:rgb(248,162,106);"/>
                <rect x="208.3" y="352.2" width="12.8" height="3.9" style="fill:rgb(249,194,186);"/>
                <rect x="217.5" y="353.4" width="3.6" height="27.3" style="fill:rgb(249,194,186);"/>
                <path d="M177.9,339.4L170.3,399.6L177.9,399.6L177.9,339.4Z" style="fill:rgb(242,99,104);fill-rule:nonzero;"/>
                <circle cx="170.4" cy="345.8" r="2.6" style="fill:white;"/>
                <rect x="162.6" y="352.9" width="5.7" height="1.2" style="fill:white;"/>
                <rect x="162.6" y="362.9" width="5.7" height="1.2" style="fill:white;"/>
                <rect x="162.6" y="372.8" width="5.7" height="1.2" style="fill:white;"/>
                <rect x="162.6" y="382.8" width="5.7" height="1.2" style="fill:white;"/>
                <rect x="162.6" y="392.8" width="5.7" height="1.2" style="fill:white;"/>
                <rect x="152.4" y="399.6" width="78.8" height="78.8" style="fill:rgb(68,80,151);"/>
                <path d="M231.2,399.6L231.2,407.1L152.6,399.6L231.2,399.6Z" style="fill:rgb(26,48,95);fill-rule:nonzero;"/>
                <path d="M185.8,371L185.8,374.7L183.5,374.7L184.5,371" style="fill:rgb(26,48,95);fill-rule:nonzero;"/>
                <path d="M184.5,371L185.8,365.8L185.8,371" style="fill:rgb(242,99,104);fill-rule:nonzero;"/>
            </g>
            <g>
                <path d="M410.9,417.7L326.6,417.7L326.6,338.1C326.6,333.2 330.5,329.3 335.4,329.3L402.1,329.3C407,329.3 410.9,333.2 410.9,338.1L410.9,417.7Z" style="fill:rgb(242,99,104);fill-rule:nonzero;"/>
                <path d="M326.6,382.1L318,382.1C313.3,382.1 309.4,378.3 309.4,373.5L309.4,354.7" style="fill:none;fill-rule:nonzero;stroke:rgb(26,48,95);stroke-width:2.34px;"/>
                <path d="M309.4,363.5C308,363.5 306.9,362.4 306.9,361L306.9,356.9C306.9,355.5 308,354.4 309.4,354.4C310.8,354.4 311.9,355.5 311.9,356.9L311.9,361C311.9,362.3 310.8,363.5 309.4,363.5Z" style="fill:rgb(26,48,95);fill-rule:nonzero;"/>
                <path d="M349.5,380.4C346.7,380.4 344.4,378.1 344.4,375.3L344.4,366.3C344.4,363.5 346.7,361.2 349.5,361.2C352.3,361.2 354.6,363.5 354.6,366.3L354.6,375.3C354.6,378.1 352.3,380.4 349.5,380.4Z" style="fill:rgb(26,48,95);fill-rule:nonzero;"/>
                <path d="M384.8,380.4C382,380.4 379.7,378.1 379.7,375.3L379.7,366.3C379.7,363.5 382,361.2 384.8,361.2C387.6,361.2 389.9,363.5 389.9,366.3L389.9,375.3C389.9,378.1 387.6,380.4 384.8,380.4Z" style="fill:rgb(26,48,95);fill-rule:nonzero;"/>
                <path d="M367.4,391.9C363.6,391.9 360.6,388.8 360.6,385.1L360.6,383.6L374.2,383.6L374.2,385.1C374.2,388.8 371.2,391.9 367.4,391.9Z" style="fill:rgb(26,48,95);fill-rule:nonzero;"/>
                <path d="M412.6,382.1L412.6,417.7" style="fill:none;fill-rule:nonzero;stroke:rgb(26,48,95);stroke-width:2.34px;"/>
            </g>
            <g transform="matrix(-1.83697e-16,1,-1,-1.83697e-16,620.39,348.776)">
                <rect x="131.1" y="481.8" width="9.5" height="5.5" style="fill:rgb(249,194,186);"/>
            </g>
            <g transform="matrix(-1.83697e-16,1,-1,-1.83697e-16,615.797,353.369)">
                <rect x="126.5" y="482.7" width="9.5" height="3.7" style="fill:rgb(68,80,151);"/>
            </g>
            <path d="M85.4,489.3L75.4,484.6L85.4,479.8L129.4,479.8L129.4,489.3L85.4,489.3Z" style="fill:rgb(248,162,106);fill-rule:nonzero;"/>
            <path d="M133.1,489.3L129.4,489.3L129.4,487.1L133.1,488" style="fill:rgb(26,48,95);fill-rule:nonzero;"/>
            <path d="M133.1,488L138.3,489.3L133.1,489.3" style="fill:rgb(242,99,104);fill-rule:nonzero;"/>
        </g>
        <g>
            <path d="M531,211L440,211L444,184.4C448.6,164.8 466.2,151 486.4,151.3C506.5,151.5 523.8,165.7 528,185.4L531,211Z" style="fill:rgb(26,48,95);fill-rule:nonzero;"/>
            <path d="M504.5,176L466.5,175.6L466.8,153.1C466.9,142.6 475.5,134.2 486,134.3C496.5,134.4 504.9,143 504.8,153.5L504.5,176Z" style="fill:rgb(26,48,95);fill-rule:nonzero;"/>
            <g transform="matrix(1,0,0,2.64478,0,-266.29)">
                <rect x="482.7" y="2" width="5.4" height="159.9" style="fill:rgb(26,48,95);"/>
            </g>
        </g>
    </g>
    <g transform="matrix(1,0,0,1,0,261)">
        <path d="M763.6,487.2L84.6,489.1L0.6,489.3L0.7,538.1L763.6,536L763.6,487.2Z" style="fill:rgb(249,194,186);fill-rule:nonzero;"/>
    </g>
    <g transform="matrix(1,0,0,1,0,261)">
        <path d="M763.6,535.2L32.9,537.2L33.2,633.9L763.6,631.8L763.6,535.2Z" style="fill:rgb(242,99,104);fill-rule:nonzero;"/>
    </g>
</svg>
